assets/Crossed swords/Flat/crossed_swords_flat.svg

<svg width="32" height="32" viewBox="0 0 32 32" fill="none" xmlns="http://www.w3.org/2000/svg">
<path d="M29.8501 2.15002C29.9401 2.24002 30.0001 2.36002 30.0001 2.50002V5.61002C30.0001 5.86002 29.9001 6.10002 29.7201 6.27002L19.8656 16.0198L19.4931 17.557L17.9324 17.9325L20.5 19.5L22.07 22.07L19.79 23.6L15.9966 19.8478L11.8301 23.97L9.93005 22.07L19 11L29.8501 2.15002Z" fill="#9B9B9B"/>
<path d="M2.15 2.15002L9 7.5L14.0659 14.0659L13.5 15.5L12.1303 16.0234L2.28 6.28002C2.1 6.10002 2 5.86002 2 5.61002V2.50002C2 2.36002 2.06 2.24002 2.15 2.15002Z" fill="#9B9B9B"/>
<path d="M29.855 2.14499C29.765 2.05499 29.64 2 29.5 2H26.39C26.14 2 25.9 2.1 25.72 2.28L16.0028 12.1071L6.27999 2.28C6.09999 2.1 5.85999 2 5.60999 2H2.49999C2.36 2 2.23502 2.05499 2.14502 2.14497L14.0659 14.0659L8.03003 20.17L9.93005 22.07L29.855 2.14499Z" fill="#D3D3D3"/>
<path d="M22.07 22.07L17.9325 17.9324L19.8698 16.0157L23.98 20.17L22.07 22.07Z" fill="#D3D3D3"/>
<path d="M3.66003 26.44L5.56003 28.34L10.88 23.02L8.98003 21.12L3.66003 26.44Z" fill="#321B41"/>
<path d="M28.34 26.44L26.44 28.34L21.12 23.02L23.02 21.12L28.34 26.44Z" fill="#321B41"/>
<path d="M2.39994 27.71L4.29994 29.61C4.81994 30.13 5.66994 30.13 6.19994 29.61C6.72994 29.09 6.72994 28.24 6.19994 27.71L4.29994 25.81C3.77994 25.28 2.92994 25.28 2.39994 25.81C1.86994 26.33 1.86994 27.18 2.39994 27.71Z" fill="#635994"/>
<path d="M29.6 27.71L27.7 29.61C27.18 30.13 26.33 30.13 25.8 29.61C25.27 29.09 25.27 28.24 25.8 27.71L27.7 25.81C28.22 25.28 29.07 25.28 29.6 25.81C30.13 26.33 30.13 27.18 29.6 27.71Z" fill="#635994"/>
<path d="M22.97 17.63C22.91 17.43 23.06 17.23 23.27 17.23H25.39C25.54 17.23 25.67 17.33 25.7 17.48C26.13 19.74 25.43 22.1 23.77 23.76C22.11 25.43 19.75 26.12 17.49 25.69C17.35 25.66 17.24 25.53 17.24 25.38V23.26C17.24 23.05 17.44 22.9 17.64 22.96C19.13 23.39 20.76 22.97 21.87 21.86C22.98 20.75 23.39 19.13 22.97 17.63Z" fill="#533566"/>
<path d="M9.03 17.64C8.6 19.13 9.02 20.76 10.13 21.87C11.23 22.96 12.81 23.38 14.28 22.99C14.48 22.94 14.68 23.08 14.68 23.29V25.4C14.68 25.55 14.57 25.68 14.42 25.71C12.19 26.11 9.87 25.41 8.23 23.77C6.56 22.11 5.87 19.75 6.3 17.49C6.33 17.35 6.46 17.24 6.61 17.24H8.73C8.94 17.24 9.09 17.44 9.03 17.64Z" fill="#533566"/>
</svg>

<svg xmlns="http://www.w3.org/2000/svg" width="32" height="32" fill="none"><path fill="#9B9B9B" d="M29.85 2.15c.09.09.15.21.15.35v3.11c0 .25-.1.49-.28.66l-9.854 9.75-.373 1.537-1.56.376L20.5 19.5l1.57 2.57-2.28 1.53-3.793-3.752-4.167 4.122-1.9-1.9L19 11l10.85-8.85ZM2.15 2.15 9 7.5l5.066 6.566L13.5 15.5l-1.37.523L2.28 6.28A.947.947 0 0 1 2 5.61V2.5c0-.14.06-.26.15-.35Z"/><path fill="#D3D3D3" d="M29.855 2.145A.498.498 0 0 0 29.5 2h-3.11c-.25 0-.49.1-.67.28l-9.717 9.827L6.28 2.28A.947.947 0 0 0 5.61 2H2.5a.498.498 0 0 0-.355.145l11.92 11.92L8.03 20.17l1.9 1.9L29.855 2.145ZM22.07 22.07l-4.137-4.138 1.937-1.916 4.11 4.154-1.91 1.9Z"/><path fill="#321B41" d="m3.66 26.44 1.9 1.9 5.32-5.32-1.9-1.9-5.32 5.32ZM28.34 26.44l-1.9 1.9-5.32-5.32 1.9-1.9 5.32 5.32Z"/><path fill="#635994" d="m2.4 27.71 1.9 1.9c.52.52 1.37.52 1.9 0 .53-.52.53-1.37 0-1.9l-1.9-1.9c-.52-.53-1.37-.53-1.9 0-.53.52-.53 1.37 0 1.9ZM29.6 27.71l-1.9 1.9c-.52.52-1.37.52-1.9 0-.53-.52-.53-1.37 0-1.9l1.9-1.9c.52-.53 1.37-.53 1.9 0 .53.52.53 1.37 0 1.9Z"/><path fill="#533566" d="M22.97 17.63c-.06-.2.09-.4.3-.4h2.12c.15 0 .28.1.31.25.43 2.26-.27 4.62-1.93 6.28a6.998 6.998 0 0 1-6.28 1.93.321.321 0 0 1-.25-.31v-2.12c0-.21.2-.36.4-.3 1.49.43 3.12.01 4.23-1.1a4.329 4.329 0 0 0 1.1-4.23ZM9.03 17.64a4.312 4.312 0 0 0 5.25 5.35c.2-.05.4.09.4.3v2.11c0 .15-.11.28-.26.31-2.23.4-4.55-.3-6.19-1.94a6.998 6.998 0 0 1-1.93-6.28c.03-.14.16-.25.31-.25h2.12c.21 0 .36.2.3.4Z"/></svg>
